images/client-logo3.svg

<svg width="45" height="42" viewBox="0 0 45 42" fill="none" xmlns="http://www.w3.org/2000/svg">
<path d="M7.40622 41.1014C7.42213 41.1018 7.4378 41.1049 7.45231 41.1106C7.46683 41.1163 7.47989 41.1245 7.49074 41.1346L7.70885 41.3431C7.53955 41.5118 7.33029 41.6468 7.0954 41.7388C6.82033 41.8391 6.52388 41.8875 6.22565 41.8809C5.94542 41.8859 5.66699 41.8408 5.40771 41.7482C5.17383 41.6632 4.9637 41.5356 4.79153 41.3739C4.61582 41.2062 4.48048 41.0096 4.39347 40.7958C4.29818 40.5574 4.25113 40.3065 4.25442 40.0542C4.25055 39.8003 4.30141 39.548 4.40437 39.3103C4.49962 39.0951 4.64329 38.8986 4.82698 38.7322C5.01315 38.5691 5.23586 38.4408 5.48133 38.3555C5.74986 38.265 6.03582 38.22 6.32381 38.2228C6.59132 38.2172 6.85741 38.2582 7.1063 38.3436C7.32224 38.425 7.52052 38.538 7.6925 38.6777L7.50982 38.9004C7.4972 38.9161 7.48152 38.9297 7.46347 38.9407C7.44192 38.9535 7.41587 38.9594 7.38986 38.9573C7.36156 38.9556 7.33428 38.9474 7.31079 38.9336L7.21264 38.8743L7.07631 38.7985C7.01746 38.7704 6.95643 38.7458 6.89364 38.7251C6.81277 38.6999 6.72983 38.6801 6.64553 38.6659C6.53854 38.6487 6.42986 38.6408 6.32108 38.6422C6.1137 38.6399 5.9079 38.6737 5.7158 38.7417C5.53666 38.8046 5.37495 38.8999 5.2414 39.0212C5.10545 39.1503 5.00068 39.3018 4.93331 39.4667C4.85652 39.6553 4.81868 39.8542 4.82152 40.0542C4.81825 40.2574 4.85609 40.4595 4.93331 40.6513C4.99984 40.8147 5.10266 40.9653 5.23595 41.0943C5.36082 41.2146 5.51561 41.3086 5.68854 41.3692C5.86651 41.4333 6.05754 41.4655 6.25019 41.4639C6.36148 41.4654 6.47272 41.4591 6.58282 41.445C6.76261 41.4259 6.93507 41.3716 7.08722 41.2862C7.16353 41.2425 7.23557 41.1934 7.30261 41.1393C7.33064 41.1161 7.3675 41.1026 7.40622 41.1014Z" fill="#AFB1B8"/>
<path d="M13.7043 40.0538C13.7077 40.3052 13.6578 40.5549 13.5571 40.7906C13.4682 41.0043 13.3283 41.1993 13.1464 41.3626C12.9645 41.526 12.7449 41.654 12.502 41.7382C11.9682 41.9151 11.3781 41.9151 10.8443 41.7382C10.6029 41.6527 10.3847 41.5244 10.2036 41.3615C10.0218 41.1952 9.88083 40.9986 9.78915 40.7835C9.59274 40.3063 9.59274 39.7847 9.78915 39.3076C9.88216 39.0923 10.023 38.8951 10.2036 38.7271C10.3862 38.5694 10.6043 38.446 10.8443 38.3647C11.3774 38.1846 11.9688 38.1846 12.502 38.3647C12.7442 38.4502 12.9633 38.5784 13.1454 38.7414C13.3249 38.906 13.4648 39.1001 13.5571 39.3123C13.6581 39.5495 13.708 39.8009 13.7043 40.0538ZM13.1318 40.0538C13.1361 39.8527 13.101 39.6525 13.0282 39.4615C12.9671 39.298 12.8677 39.1472 12.7364 39.0185C12.6086 38.8968 12.4512 38.8013 12.2757 38.739C11.8878 38.6095 11.4584 38.6095 11.0706 38.739C10.895 38.8013 10.7376 38.8968 10.6098 39.0185C10.4767 39.1464 10.3763 39.2974 10.3154 39.4615C10.1766 39.8472 10.1766 40.2604 10.3154 40.6461C10.3769 40.81 10.4772 40.9609 10.6098 41.0891C10.7378 41.2101 10.8952 41.3048 11.0706 41.3663C11.4591 41.4925 11.8871 41.4925 12.2757 41.3663C12.451 41.3048 12.6084 41.2101 12.7364 41.0891C12.8672 40.9601 12.9664 40.8094 13.0282 40.6461C13.1013 40.4552 13.1364 40.2549 13.1318 40.0538Z" fill="#AFB1B8"/>
<path d="M18.0013 40.6747L18.0585 40.8074C18.0803 40.76 18.0994 40.7173 18.1212 40.6747C18.142 40.6302 18.1657 40.5867 18.1921 40.5444L19.5853 38.3438C19.6126 38.3059 19.6371 38.2823 19.6644 38.2751C19.7015 38.2653 19.7402 38.2613 19.7789 38.2633H20.1906V41.8425H19.7026V39.2108C19.7026 39.1776 19.7026 39.1397 19.7026 39.0995C19.6999 39.0585 19.6999 39.0173 19.7026 38.9763L18.3012 41.2077C18.2834 41.2411 18.2549 41.2694 18.2191 41.2891C18.1833 41.3089 18.1418 41.3192 18.0994 41.319H18.0203C17.9779 41.3195 17.9362 41.3093 17.9003 41.2895C17.8645 41.2697 17.8361 41.2413 17.8186 41.2077L16.3763 38.9621C16.3763 39.0047 16.3763 39.0474 16.3763 39.09C16.3763 39.1326 16.3763 39.1705 16.3763 39.2037V41.8354H15.9046V38.2633H16.3163C16.355 38.2613 16.3937 38.2653 16.4308 38.2751C16.4646 38.2897 16.4916 38.314 16.5072 38.3438L17.9304 40.5468C17.9583 40.5875 17.9821 40.6303 18.0013 40.6747Z" fill="#AFB1B8"/>
<path d="M23.2443 40.4969V41.8376H22.699V38.2632H23.915C24.1445 38.2594 24.3734 38.2857 24.5939 38.3413C24.7704 38.3848 24.934 38.4607 25.0737 38.564C25.1948 38.6608 25.2882 38.7808 25.3464 38.9146C25.4107 39.0604 25.4422 39.2156 25.4391 39.3717C25.4415 39.5285 25.4072 39.684 25.3382 39.8289C25.2726 39.966 25.1719 40.0884 25.0437 40.1866C24.9038 40.2941 24.7394 40.3749 24.5612 40.4234C24.3489 40.4824 24.1269 40.5104 23.9041 40.5063L23.2443 40.4969ZM23.2443 40.1131H23.9041C24.0474 40.1148 24.1901 40.0964 24.3267 40.0587C24.4394 40.0257 24.5432 39.9733 24.632 39.9047C24.714 39.8391 24.7774 39.7581 24.8174 39.6678C24.8621 39.5723 24.8843 39.4701 24.8829 39.367C24.8892 39.2676 24.8706 39.1683 24.8282 39.0758C24.7858 38.9834 24.7207 38.9 24.6375 38.8317C24.4292 38.6904 24.1676 38.6219 23.9041 38.6398H23.2443V40.1131Z" fill="#AFB1B8"/>
<path d="M30.573 41.8424H30.1422C30.099 41.8438 30.0566 41.8321 30.0223 41.8092C29.9913 41.7869 29.967 41.7585 29.9514 41.7263L29.5806 40.8616H27.7184L27.334 41.7263C27.3198 41.7579 27.2963 41.7857 27.2658 41.8069C27.2312 41.8311 27.1876 41.8437 27.1431 41.8424H26.7123L28.3482 38.2628H28.9153L30.573 41.8424ZM27.8738 40.5134H29.4115L28.7626 39.0564C28.713 38.9468 28.6721 38.8344 28.64 38.72L28.5772 38.9072C28.5582 38.964 28.5363 39.0162 28.5173 39.0588L27.8738 40.5134Z" fill="#AFB1B8"/>
<path d="M32.9287 38.2795C32.9613 38.295 32.9893 38.3169 33.0105 38.3434L35.3962 41.0417C35.3962 40.9991 35.3962 40.9564 35.3962 40.9161C35.3962 40.8759 35.3962 40.8356 35.3962 40.7977V38.2629H35.8842V41.8424H35.6116C35.5728 41.8434 35.5344 41.8361 35.4998 41.8211C35.4661 41.804 35.4365 41.7815 35.4125 41.7548L33.0296 39.0589C33.0322 39.0999 33.0322 39.141 33.0296 39.1821C33.0296 39.2223 33.0296 39.2579 33.0296 39.291V41.8424H32.5416V38.2629H32.8306C32.8643 38.2621 32.8978 38.2677 32.9287 38.2795Z" fill="#AFB1B8"/>
<path d="M39.903 40.4188V41.8402H39.3577V40.4188L37.85 38.2631H38.338C38.3801 38.2609 38.4216 38.2718 38.4553 38.2938C38.4849 38.3168 38.5098 38.3441 38.5289 38.3744L39.4722 39.765C39.5104 39.8242 39.5431 39.8787 39.5704 39.9308C39.5977 39.9829 39.6195 40.0327 39.6386 40.0824L39.7094 39.9284C39.7359 39.8721 39.7669 39.8175 39.8021 39.765L40.7319 38.3649C40.7514 38.337 40.7753 38.3115 40.8028 38.2891C40.8351 38.2646 40.8771 38.2518 40.92 38.2536H41.4135L39.903 40.4188Z" fill="#AFB1B8"/>
<path d="M17.7313 32.2561C17.9685 32.2822 18.2085 32.3035 18.4511 32.3225C22.13 30.8926 25.2421 28.5523 27.3986 25.5942C29.5551 22.636 30.6602 19.1912 30.5758 15.6904L26.5215 12.1678C27.3458 15.8951 26.9602 19.7482 25.4078 23.2959C23.8554 26.8437 21.1975 29.9461 17.7313 32.2561Z" fill="#AFB1B8"/>
<path d="M16.2836 32.0923L16.3927 32.1112C20.0966 29.8094 22.9205 26.5951 24.4992 22.8839C26.0779 19.1727 26.3388 15.1353 25.2483 11.2939L19.4736 6.27673C21.8093 10.4008 22.7495 15.0162 22.1847 19.5862C21.62 24.1562 19.5737 28.493 16.2836 32.0923Z" fill="#AFB1B8"/>
<path d="M35.8679 19.8265C34.8868 23.6731 32.504 27.1423 29.0735 29.7189C28.0716 30.4755 26.9909 31.1496 25.8453 31.7324C28.6388 31.019 31.2064 29.7578 33.3502 28.046C35.4939 26.3341 37.1566 24.2174 38.2099 21.859L35.8679 19.8265Z" fill="#AFB1B8"/>
<path d="M34.949 19.2601L31.6146 16.3629C31.5508 19.666 30.47 22.894 28.4845 25.7114C26.499 28.5287 23.6813 30.8327 20.3242 32.3837H20.3406C21.0887 32.3835 21.8362 32.3447 22.579 32.2676C25.7164 31.155 28.488 29.3849 30.6464 27.1152C32.8049 24.8455 34.283 22.1469 34.949 19.2601Z" fill="#AFB1B8"/>
<path d="M16.7662 4.16091L12.7883 0.699951C9.23216 1.89391 6.17374 3.99283 4.01331 6.72203C1.85288 9.45122 0.691089 12.6835 0.679993 15.9959H0.679993C0.693321 19.656 2.1112 23.2077 4.70923 26.0888C7.30725 28.9699 10.937 31.016 15.024 31.903C18.6724 28.041 20.8085 23.2687 21.1218 18.2798C21.4351 13.2908 19.9094 8.34495 16.7662 4.16091Z" fill="#AFB1B8"/>
<path d="M44.14 18.7273C44.1256 14.3848 42.1338 10.2238 38.5996 7.15318C35.0655 4.08257 30.2763 2.35199 25.2783 2.33949C22.9687 2.33741 20.6788 2.70769 18.5248 3.43153L42.8804 24.5926C43.7143 22.7221 44.1414 20.7333 44.14 18.7273Z" fill="#AFB1B8"/>
</svg>

<svg fill="none" xmlns="http://www.w3.org/2000/svg"><path d="M7.406 41.101c.016 0 .032.004.046.01a.122.122 0 0 1 .039.024l.218.208c-.17.169-.379.304-.614.396a2.39 2.39 0 0 1-.87.142c-.28.005-.558-.04-.817-.133a1.793 1.793 0 0 1-.616-.374 1.674 1.674 0 0 1-.399-.578 1.927 1.927 0 0 1-.139-.742 1.724 1.724 0 0 1 .573-1.322c.186-.163.409-.291.654-.377.269-.09.555-.135.843-.132a2.27 2.27 0 0 1 .782.12c.216.082.415.195.587.335l-.183.222a.178.178 0 0 1-.047.04.125.125 0 0 1-.073.017.178.178 0 0 1-.08-.023l-.097-.06-.137-.076a1.551 1.551 0 0 0-.43-.132 1.892 1.892 0 0 0-.325-.024 1.76 1.76 0 0 0-.605.1 1.39 1.39 0 0 0-.475.28c-.136.128-.24.28-.308.445a1.499 1.499 0 0 0-.111.587 1.53 1.53 0 0 0 .111.597c.067.164.17.314.303.443.125.12.28.215.453.275.178.064.369.096.561.095.111.001.223-.005.333-.019a1.316 1.316 0 0 0 .72-.306.171.171 0 0 1 .103-.038ZM13.704 40.054a1.81 1.81 0 0 1-.147.737 1.594 1.594 0 0 1-.41.572 1.889 1.889 0 0 1-.645.375 2.655 2.655 0 0 1-1.658 0 1.91 1.91 0 0 1-.64-.377 1.677 1.677 0 0 1-.415-.578 1.922 1.922 0 0 1 0-1.475c.093-.216.234-.413.415-.58.182-.159.4-.282.64-.363a2.61 2.61 0 0 1 1.658 0c.242.085.461.213.643.376.18.165.32.36.412.571.101.238.151.489.147.742Zm-.572 0a1.566 1.566 0 0 0-.104-.593 1.22 1.22 0 0 0-.752-.722 1.918 1.918 0 0 0-1.205 0 1.295 1.295 0 0 0-.461.28 1.191 1.191 0 0 0-.295.443 1.737 1.737 0 0 0 0 1.184 1.209 1.209 0 0 0 .756.72c.388.127.816.127 1.205 0 .175-.061.332-.156.46-.277.131-.129.23-.28.292-.443.073-.19.108-.391.104-.592ZM18.001 40.675l.057.132c.022-.047.041-.09.063-.132a1.23 1.23 0 0 1 .071-.13l1.393-2.201c.028-.038.052-.062.08-.069a.373.373 0 0 1 .114-.012h.412v3.58h-.488V39.1a.938.938 0 0 1 0-.124L18.3 41.208a.203.203 0 0 1-.082.081.246.246 0 0 1-.12.03h-.079a.243.243 0 0 1-.12-.03.2.2 0 0 1-.081-.081l-1.443-2.246V41.835h-.471v-3.572h.411a.373.373 0 0 1 .115.012c.034.015.06.039.076.069l1.423 2.203a.76.76 0 0 1 .071.128ZM23.244 40.497v1.34H22.7v-3.574h1.216c.23-.004.458.023.679.078.176.044.34.12.48.223a.922.922 0 0 1 .272.35c.065.146.096.302.093.458a.993.993 0 0 1-.395.815c-.14.107-.305.188-.483.236a2.3 2.3 0 0 1-.657.083l-.66-.01Zm0-.384h.66c.143.002.286-.017.423-.054a.924.924 0 0 0 .305-.154.686.686 0 0 0 .25-.538.605.605 0 0 0-.054-.291.69.69 0 0 0-.19-.244 1.172 1.172 0 0 0-.734-.192h-.66v1.473ZM30.573 41.842h-.43a.205.205 0 0 1-.12-.033.222.222 0 0 1-.072-.083l-.37-.864h-1.863l-.384.864a.205.205 0 0 1-.19.116h-.432l1.636-3.58h.567l1.658 3.58Zm-2.7-1.329h1.538l-.648-1.457c-.05-.11-.09-.222-.123-.336l-.063.187c-.019.057-.04.11-.06.152l-.643 1.454ZM32.929 38.28c.032.015.06.037.081.063l2.386 2.699v-2.779h.488v3.58h-.272a.265.265 0 0 1-.112-.022.299.299 0 0 1-.087-.066l-2.383-2.696a.974.974 0 0 1 0 .123v2.66h-.488v-3.58h.289c.033 0 .067.006.098.017ZM39.903 40.419v1.421h-.545V40.42l-1.508-2.156h.488a.197.197 0 0 1 .117.03c.03.024.055.051.074.081l.943 1.391c.038.06.071.114.098.166.028.052.05.102.069.151l.07-.154c.027-.056.058-.11.093-.163l.93-1.4a.376.376 0 0 1 .07-.076.182.182 0 0 1 .118-.035h.493l-1.51 2.165ZM17.731 32.256c.237.026.477.047.72.066 3.679-1.43 6.791-3.77 8.948-6.728 2.156-2.958 3.261-6.403 3.177-9.904l-4.055-3.522c.825 3.727.44 7.58-1.113 11.128s-4.21 6.65-7.677 8.96Z" fill="#AFB1B8"/><path d="m16.284 32.092.109.02c3.704-2.303 6.527-5.517 8.106-9.228 1.579-3.711 1.84-7.749.75-11.59l-5.775-5.017c2.335 4.124 3.276 8.74 2.71 13.31-.564 4.57-2.61 8.906-5.9 12.505ZM35.868 19.826c-.981 3.847-3.364 7.316-6.795 9.893a21.629 21.629 0 0 1-3.228 2.013c2.794-.713 5.361-1.974 7.505-3.686s3.807-3.829 4.86-6.187l-2.342-2.033Z" fill="#AFB1B8"/><path d="m34.949 19.26-3.334-2.897c-.064 3.303-1.145 6.531-3.13 9.348-1.986 2.818-4.804 5.122-8.16 6.673h.016c.748 0 1.495-.04 2.238-.116 3.137-1.113 5.909-2.883 8.067-5.153 2.159-2.27 3.637-4.968 4.303-7.855ZM16.766 4.16 12.788.7C9.232 1.894 6.174 3.993 4.013 6.722 1.853 9.452.691 12.684.68 15.996c.013 3.66 1.431 7.212 4.03 10.093 2.597 2.88 6.227 4.927 10.314 5.814 3.648-3.862 5.784-8.634 6.098-13.623.313-4.99-1.213-9.935-4.356-14.12ZM44.14 18.727c-.014-4.342-2.006-8.503-5.54-11.574-3.535-3.07-8.324-4.801-13.322-4.814a21.18 21.18 0 0 0-6.753 1.093l24.355 21.16a14.352 14.352 0 0 0 1.26-5.865Z" fill="#AFB1B8"/></svg>
